X: 710
T: Zemer Atik (Am)
O: Israel
Z: John Chambers <jc@trillian.mit.edu>
M: 4/4
L: 1/8
K: Am
[| "E"^GAFG ABGA | B8 | "Dm"Bcde dcBA | "E"B8 \
| "E"Beed dccB | "Am"A2B2 "E"^G4 | "Dm"^GAFG ABGF | "E"E8
| "C"e4 e4 | "G"dedc "E"d2B2  | "Am"c6 BA | "E"B2e2 B2E2 \
| "C"e4 e4 | "G"dedc "E"d2B2  | "Am"ABcA "E"BcB^G | "Am"A8 |]
